!!!OTL: Lied der Buerger von Glueckstadt bei der Durchreise des Koenigs Christian VI. / (regierte von 1730 - 1746.)
!!!OTL-incipit:KOENIG CHRISTIAN LEBE WOHL
!!!COM: Volksweise
!!!ARE: Europa, Mitteleuropa, Deutschland
!!!SCT: F0442
!!!TXL: @@DE
!!!YEM: Copyright 1995, estate of Helmut Schaffrath.
**kern	**text
*ICvox	*
*I"Tenori	*
*clefG2	*
*M4/4	*
*met(c)	*
*k[f#]	*
*G:	*
!LO:TX:a:t=P:only the highest voice encoded:problem	!
{4g	1._Kö-
4b/	-nig
=1	=1
4dd/	Chriſtian
8b/L	.
8gJ	.
4cc/	le-
8aL	-be
8f#J	.
=2	=2
4g	wohl,
4r}	.
{8aL	weil
8gJ	.
8f#L	die
8eJ	.
=3	=3
4d	ſech-
4cc/	-ſte
4cc/	Ʒahl
4b/	iſt
=4	=4
4a	voll!
4r	.
2r}	.
=5	=5
!LO:TX:a:t=Erst halber Chor der Außenſitʒenden, bei der Wiederholung Alle fortissimo.	!
{8dd/L	Wird
8ccJ	.
8b/L	der
8aJ	.
8gL	Kö-
8aJ	.
8gL	-nig
8fnJ	.
=6	=6
4e	wie-
4g	-derkommen,
4cc/	.
4c}	.
=7	=7
{8ee/L	und
8ddJ	.
8cc#/L	der
8bJ	.
8aL	Lö-
8bJ	.
8aL	-we
8gJ	.
=8	=8
4f#	nicht
4a	mehr
4dd/	brummen,
4d}	.
=9	=9
{4g	und
(12gL	ſo
12a	.
12bJ)	.
4a	recht
(12a/L	nach
12b	.
12ccJ)	.
=10	=10
8ccq	.
8bL	Lands-
8aJ	.
8b/L	-ma-
8ccJ	.
4dd/	-nier
4r}	.
=11	=11
{8gg/	ſehn
8dd/	wir
8dd/	un-
8cc/	-ſern
4b/	Kö-
4cc/	-nig
=12	=12
4b/	hier!
4r	.
2r}	.
=13	=13
{8dd/L	Wird
8ccJ	.
8b/L	der
8aJ	.
8gL	Kö-
8aJ	.
8gL	-nig
8fnJ	.
=14	=14
4e	wie-
4g	-derkommen,
4cc/	.
4c}	.
=15	=15
{8ee/L	und
8ddJ	.
8cc#/L	der
8bJ	.
8aL	Lö-
8bJ	.
8aL	-we
8gJ	.
=16	=16
4f#	nicht
4a	mehr
4dd/	brummen,
4d}	.
=17	=17
{4g	und
(12gL	ſo
12a	.
12bJ)	.
4a	recht
(12a/L	nach
12b	.
12ccJ)	.
=18	=18
8ccq	.
8bL	Lands-
8aJ	.
8b/L	-ma-
8ccJ	.
4dd/	-nier
4r}	.
=19	=19
{8gg/	ſehn
8dd/	wir
8dd/	un-
8cc/	-ſern
4b/	Kö-
4cc/	-nig
=20	=20
4b/	hier!
4r}	.
==	==
!!!AGN: Vaterlands -, Heimat - Lied, nationalistisch
!!!ONB: ESAC (Essen Associative Code) Database: FINK
!!!AMT: simple quadruple
!!!AIN: vox
!!!EED: Helmut Schaffrath
!!!EEV: 1.0
!!!GTL: Vaterlands- und Heimathslieder
!!Text: Volkslied
!!!source: Musikalischer Hausschatz der Deutschen. Eine Sammlung von über 1000 Liedern und Gesängen mit Singstimmen und Klavierbegleitung. Leipzig, Litterarisches Verlags-Haus.
!!!page: 272
!!!URL-scan: https://www.digitale-sammlungen.de/en/view/bsb11144622?page=262,263
!!!ENC: Anna Maria Matuszewska
!!!EEV: 2024/07/31
*-	*-
